packages/wallets/src/public/images/wallet-demo-desktop-bg.svg

<svg xmlns="http://www.w3.org/2000/svg" width="58" height="39" viewBox="0 0 58 39" fill="none">
  <path d="M5.78229 26.5002L6.79352 29.3353L5.23217 30.2512C3.77553 31.1057 3.06307 33.1098 3.64004 34.7291L3.88623 35.4179C4.46441 37.0365 6.11226 37.656 7.5689 36.8014L8.87114 36.0375C9.93279 35.4147 10.4519 33.9551 10.0306 32.7754L7.33597 25.219L5.78229 26.5002ZM8.27299 33.4832C8.40337 33.8474 8.26101 34.2897 7.93306 34.4821L7.14191 34.9462C6.4872 35.3303 5.74473 35.0515 5.48395 34.323L5.33075 33.8933C5.07184 33.1652 5.39156 32.2618 6.04627 31.8777L7.41415 31.0753L8.27299 33.4832ZM22.6434 27.9581L20.3389 21.4983L21.9595 20.5476L24.264 27.0074L22.6422 27.9588L22.6434 27.9581ZM19.528 22.0641C19.7109 22.5764 19.8933 23.089 20.0762 23.6014C19.1717 23.8112 18.4231 24.3525 18.2075 24.5442C18.7995 26.2028 19.3914 27.8619 19.983 29.5207L18.3613 30.472C17.8663 29.0841 16.176 24.3439 16.176 24.3439C16.5784 23.8143 17.6197 22.6077 19.528 22.0641ZM12.8717 25.7683L11.6102 26.5083C10.381 27.2294 9.77962 28.9206 10.267 30.2868L10.8395 31.8925C11.3269 33.2587 12.7172 33.7815 13.9465 33.0604L16.6299 31.4862L16.0106 29.7503L13.4886 31.2297C13.0793 31.4698 12.6153 31.2964 12.4532 30.8397L12.4335 30.7854L16.4994 28.4002L15.9775 26.9368C15.49 25.5707 14.0998 25.0478 12.8705 25.769L12.8717 25.7683ZM14.2795 27.7656L14.318 27.8556L11.9002 29.2739L11.8709 29.1914C11.7094 28.736 11.8765 28.1538 12.287 27.913L13.2314 27.3589C13.6372 27.1209 14.1142 27.3172 14.2795 27.7656ZM28.2827 16.8382C28.5716 18.6429 28.7366 21.9041 28.5668 24.4832L26.9451 25.4346C25.3764 23.9949 23.6116 21.7421 22.6202 20.1601L24.242 19.2086C24.5721 19.7208 25.9228 21.5463 26.9704 22.7605C26.948 20.9945 26.7645 18.7678 26.6597 17.7903L28.2827 16.8382Z" fill="#FF444F"/>
  <path d="M35.4916 18.8732C35.6005 19.04 35.7252 19.1996 35.8661 19.3521C36.0069 19.5051 36.1785 19.6572 36.3806 19.809L35.5492 20.4771C35.3631 20.366 35.1746 20.2112 34.9834 20.0127C34.9139 20.2539 34.7885 20.5277 34.6075 20.8343C34.4262 21.1409 34.1345 21.4121 33.732 21.6482C33.4041 21.8406 33.0891 21.9579 32.7869 21.9999C32.4845 22.042 32.1962 22.0184 31.9215 21.9292C31.647 21.84 31.3906 21.6923 31.1532 21.486C30.9155 21.2799 30.6999 21.0284 30.5061 20.7314C30.1894 20.2462 29.9636 19.7226 29.8288 19.1607C29.6939 18.5989 29.6742 18.0396 29.7694 17.4828C29.8646 16.9264 30.09 16.3912 30.445 15.8772C30.8001 15.3635 31.3092 14.912 31.9725 14.5229C32.0544 14.4748 32.1388 14.4304 32.2255 14.3895C32.3122 14.3487 32.4051 14.3094 32.5038 14.2712L31.4707 11.3619L32.4416 10.5521L35.0131 17.832C35.0844 18.0206 35.155 18.1995 35.2245 18.3691C35.2939 18.5386 35.383 18.7067 35.4916 18.8732ZM33.3844 20.6654C33.6974 20.4818 33.9224 20.2622 34.0595 20.0064C34.1966 19.7508 34.2928 19.4916 34.348 19.2288C34.2798 19.1087 34.2114 18.976 34.1425 18.831C34.0736 18.6862 34.0058 18.5232 33.9393 18.3419L32.8374 15.2324C32.7609 15.2573 32.6805 15.2921 32.5962 15.3364C32.5117 15.381 32.4323 15.425 32.3578 15.4687C31.9331 15.7179 31.6012 16.0228 31.3625 16.3832C31.1237 16.7436 30.9707 17.129 30.9034 17.5389C30.8361 17.9488 30.8517 18.3679 30.9506 18.7954C31.0495 19.2234 31.2242 19.6291 31.4747 20.013C31.5834 20.1796 31.7058 20.3279 31.8425 20.4581C31.979 20.5885 32.1271 20.6892 32.2872 20.7605C32.4471 20.832 32.6197 20.8637 32.8049 20.8551C32.9901 20.8468 33.1832 20.7835 33.3844 20.6654Z" fill="#414652"/>
  <path d="M39.8574 18.0549C39.4774 18.2778 39.115 18.4175 38.7711 18.4743C38.4268 18.5312 38.1011 18.5218 37.7944 18.4464C37.4876 18.3709 37.2092 18.2365 36.959 18.0426C36.7089 17.8489 36.494 17.6144 36.3143 17.339C35.9835 16.8322 35.7428 16.2973 35.5919 15.7346C35.4413 15.1722 35.3931 14.6247 35.4473 14.0919C35.5016 13.5593 35.6676 13.0639 35.9455 12.6052C36.2234 12.147 36.6268 11.7625 37.156 11.452C37.4615 11.2728 37.7488 11.1568 38.0185 11.1038C38.2877 11.0509 38.5339 11.0493 38.7571 11.0987C38.9799 11.1482 39.1806 11.2384 39.3587 11.3693C39.5368 11.5002 39.6851 11.6563 39.8032 11.8372C40.0254 12.1777 40.1499 12.5028 40.1767 12.8123C40.2036 13.1221 40.1647 13.4178 40.0602 13.6995C39.9554 13.9813 39.7918 14.2475 39.569 14.4982C39.3464 14.7491 39.1007 14.9886 38.8319 15.2162C38.5633 15.4441 38.2801 15.6578 37.9827 15.8571C37.6852 16.0567 37.4033 16.2446 37.1372 16.4206C37.1675 16.4832 37.1945 16.5324 37.218 16.5685C37.2418 16.6049 37.2607 16.6337 37.2748 16.6554C37.3836 16.8221 37.507 16.9677 37.6448 17.092C37.7825 17.2165 37.9441 17.302 38.1291 17.3487C38.3142 17.3955 38.5266 17.3933 38.7667 17.3427C39.0066 17.2921 39.2868 17.1727 39.6073 16.9846C39.7488 16.9017 39.8879 16.8029 40.024 16.6877C40.1602 16.5728 40.2843 16.455 40.3962 16.3341C40.5081 16.2136 40.605 16.1016 40.687 15.9982C40.7691 15.8952 40.8208 15.8123 40.8418 15.7498L41.4913 16.5556C41.3942 16.7229 41.2094 16.949 40.9369 17.2338C40.6643 17.5189 40.3046 17.7925 39.8574 18.0549ZM36.7679 15.5706C37.1907 15.3029 37.5679 15.0438 37.8996 14.7942C38.2314 14.5446 38.4955 14.2943 38.6926 14.0434C38.8896 13.7928 39.0065 13.5416 39.043 13.2896C39.0797 13.0378 39.0106 12.778 38.8356 12.5098C38.793 12.4446 38.735 12.3836 38.6618 12.3265C38.5884 12.2694 38.4999 12.2287 38.3964 12.2041C38.293 12.1799 38.1724 12.1805 38.0345 12.2061C37.8968 12.232 37.7457 12.2928 37.5819 12.3889C37.3209 12.542 37.1125 12.7395 36.9562 12.9814C36.7997 13.2235 36.6901 13.4857 36.627 13.7679C36.5641 14.0505 36.546 14.3464 36.5729 14.6561C36.5998 14.9659 36.6648 15.2706 36.7679 15.5706Z" fill="#414652"/>
  <path d="M45.6915 6.45986C46.0193 6.26754 46.3287 6.15357 46.62 6.11798C46.911 6.08247 47.1798 6.10765 47.4265 6.19319C47.6731 6.27912 47.8982 6.41486 48.102 6.60074C48.3057 6.7867 48.4881 7.00278 48.6487 7.24896C48.7527 7.40833 48.8518 7.58792 48.9464 7.78796C49.0406 7.98797 49.1224 8.18798 49.1911 8.38799L50.3617 11.6974L49.3221 12.3073L48.2375 9.24794C48.166 9.05947 48.0871 8.84787 48.0009 8.61292C47.9146 8.37819 47.8054 8.15934 47.673 7.95659C47.5832 7.81911 47.479 7.69483 47.3603 7.58399C47.2418 7.47345 47.1127 7.39398 46.9729 7.34567C46.8333 7.29761 46.6737 7.28603 46.4943 7.3109C46.3149 7.33616 46.1208 7.40996 45.9122 7.5323C45.6737 7.67222 45.4723 7.85297 45.3078 8.07463C45.1435 8.29644 45.0173 8.49799 44.9298 8.67948C45.0108 8.77232 45.0888 8.86402 45.1638 8.95525C45.2388 9.04652 45.3071 9.13934 45.3684 9.23329C45.4773 9.40006 45.574 9.57613 45.659 9.76147C45.7439 9.947 45.8222 10.1341 45.8937 10.3224L47.0642 13.6318L46.0247 14.2416L44.9401 11.1823C44.8685 10.9939 44.7868 10.7816 44.6943 10.5452C44.602 10.309 44.4873 10.0859 44.3501 9.8757C44.2605 9.73832 44.1591 9.61474 44.0468 9.50549C43.9342 9.39641 43.8118 9.31536 43.6796 9.26261C43.5472 9.21013 43.4038 9.1916 43.2491 9.2071C43.0945 9.22279 42.9239 9.28532 42.7378 9.39452C42.5514 9.50384 42.3777 9.62076 42.2169 9.7451C42.0559 9.86957 41.9276 9.98491 41.832 10.0909L43.7668 15.5662L42.7272 16.176L40.5236 9.95729C40.7928 9.65917 41.1066 9.36237 41.4651 9.06692C41.8236 8.77155 42.1594 8.5319 42.4723 8.34833C42.7853 8.16471 43.084 8.06217 43.3688 8.04023C43.6534 8.01862 43.9156 8.05749 44.1558 8.15688C44.1973 8.06265 44.2618 7.94442 44.3498 7.80277C44.4376 7.6612 44.5466 7.51218 44.6764 7.35587C44.8063 7.19952 44.9557 7.04176 45.1249 6.8825C45.2939 6.72313 45.4828 6.58229 45.6915 6.45986Z" fill="#414652"/>
  <path d="M53.9635 9.77979C53.3524 10.1383 52.7592 10.2436 52.1833 10.0955C51.6076 9.94746 51.1189 9.56579 50.7171 8.95006C50.443 8.53012 50.2161 8.05212 50.0366 7.51646C49.8571 6.981 49.7737 6.43871 49.7868 5.89023C49.7998 5.34175 49.936 4.81637 50.1953 4.31358C50.4547 3.81095 50.8861 3.38253 51.4897 3.02844C52.1006 2.67008 52.6942 2.56471 53.2699 2.71274C53.8457 2.86087 54.3345 3.24254 54.7362 3.85813C55.0103 4.27822 55.2373 4.75621 55.4167 5.29172C55.5963 5.82752 55.6795 6.36947 55.6665 6.91795C55.6535 7.46643 55.5173 7.99216 55.2579 8.4946C54.9986 8.99724 54.5671 9.42569 53.9635 9.77979ZM53.5824 8.81667C53.9177 8.61995 54.1561 8.34994 54.2977 8.00626C54.4393 7.66292 54.5057 7.29087 54.497 6.89042C54.4881 6.49005 54.4163 6.08394 54.2815 5.67213C54.1467 5.2607 53.9708 4.88807 53.7533 4.55479C53.5123 4.18552 53.2388 3.94038 52.9332 3.81914C52.6273 3.69807 52.2733 3.75545 51.8709 3.99152C51.5356 4.18824 51.2971 4.45848 51.1555 4.80197C51.0139 5.1455 50.9474 5.5174 50.9563 5.91776C50.965 6.31826 51.0369 6.72447 51.1716 7.13595C51.3063 7.5478 51.4826 7.92026 51.7 8.2534C51.941 8.62266 52.2143 8.86789 52.5201 8.98905C52.8258 9.11025 53.18 9.05273 53.5824 8.81667Z" fill="#414652"/>
</svg>

<svg xmlns="http://www.w3.org/2000/svg" width="58" height="39" viewBox="0 0 58 39" fill="none"><path d="m5.782 26.5 1.012 2.835-1.562.916c-1.456.855-2.169 2.859-1.592 4.478l.246.689c.578 1.618 2.226 2.238 3.683 1.383l1.302-.764c1.062-.622 1.58-2.082 1.16-3.262L7.336 25.22 5.782 26.5Zm2.491 6.983c.13.364-.012.807-.34 1l-.791.463c-.655.384-1.397.105-1.658-.623l-.153-.43c-.26-.728.06-1.631.715-2.015l1.368-.803.859 2.408Zm14.37-5.525-2.304-6.46 1.62-.95 2.305 6.46-1.622.95h.001Zm-3.115-5.894.548 1.537a4.778 4.778 0 0 0-1.869.943l1.776 4.977-1.622.951-2.185-6.128a6.38 6.38 0 0 1 3.352-2.28Zm-6.656 3.704-1.262.74c-1.229.721-1.83 2.413-1.343 3.779l.572 1.605c.488 1.367 1.878 1.89 3.107 1.168l2.684-1.574-.62-1.736-2.521 1.48c-.41.24-.874.066-1.036-.39l-.02-.055L16.5 28.4l-.521-1.463c-.488-1.366-1.878-1.89-3.107-1.168Zm1.408 1.998.038.09-2.418 1.418-.03-.083c-.16-.455.007-1.037.417-1.278l.944-.554c.406-.238.883-.042 1.049.407Zm14.003-10.928c.289 1.805.454 5.066.284 7.645l-1.622.952c-1.569-1.44-3.333-3.693-4.325-5.275l1.622-.951c.33.512 1.68 2.337 2.728 3.552-.022-1.767-.205-3.993-.31-4.97l1.623-.953Z" fill="#FF444F"/><path d="M35.492 18.873a3.628 3.628 0 0 0 .889.936l-.832.668a2.779 2.779 0 0 1-.566-.464c-.07.24-.194.515-.375.821-.182.307-.473.578-.876.814-.328.193-.643.31-.945.352-.303.042-.59.018-.865-.07a2.207 2.207 0 0 1-.769-.444 3.575 3.575 0 0 1-.647-.755 4.978 4.978 0 0 1-.677-1.57 4.132 4.132 0 0 1-.06-1.678 4.008 4.008 0 0 1 .676-1.606c.355-.514.864-.965 1.527-1.354a3.17 3.17 0 0 1 .253-.133 4.3 4.3 0 0 1 .279-.119l-1.033-2.91.97-.809 2.572 7.28c.071.189.142.367.212.537.069.17.158.338.267.504Zm-2.108 1.792c.313-.183.538-.403.675-.659.138-.255.234-.514.289-.777a6.177 6.177 0 0 1-.409-.887l-1.102-3.11c-.076.025-.157.06-.24.104a6.092 6.092 0 0 0-.24.133 2.963 2.963 0 0 0-.994.914c-.24.36-.392.746-.46 1.156-.067.41-.051.829.048 1.256.098.428.273.834.524 1.218.108.167.23.315.367.445.137.13.285.231.445.303.16.071.333.103.518.094.185-.008.378-.072.58-.19Zm6.473-2.61a3.2 3.2 0 0 1-1.086.42 2.41 2.41 0 0 1-.977-.029 2.211 2.211 0 0 1-.835-.403 2.854 2.854 0 0 1-.645-.704 5.554 5.554 0 0 1-.722-1.604 4.536 4.536 0 0 1-.145-1.643c.055-.533.22-1.028.498-1.487.278-.458.682-.843 1.211-1.153a2.79 2.79 0 0 1 .863-.348c.269-.053.515-.055.738-.005.223.05.424.14.602.27.178.131.326.287.444.468.222.34.347.666.374.975.027.31-.012.606-.117.888a2.529 2.529 0 0 1-.491.798c-.223.251-.468.49-.737.718a9.398 9.398 0 0 1-.85.641c-.297.2-.579.388-.845.564.03.062.057.111.081.148l.057.086c.109.167.232.313.37.437.137.125.3.21.484.257.185.046.398.044.638-.006.24-.05.52-.17.84-.358a3.02 3.02 0 0 0 .417-.297 4.21 4.21 0 0 0 .372-.354 5.75 5.75 0 0 0 .291-.336.917.917 0 0 0 .155-.248l.65.806c-.098.167-.283.393-.555.678a4.954 4.954 0 0 1-1.08.82Zm-3.09-2.484c.424-.268.8-.527 1.133-.777.331-.25.596-.5.793-.75.197-.251.314-.502.35-.754.037-.252-.032-.512-.207-.78a.77.77 0 0 0-.174-.184.683.683 0 0 0-.266-.122.885.885 0 0 0-.361.002 1.438 1.438 0 0 0-.453.183c-.261.153-.47.35-.626.592a2.403 2.403 0 0 0-.329.787 2.908 2.908 0 0 0-.054.888c.027.31.092.615.195.915Zm8.924-9.111c.328-.192.638-.306.929-.342.291-.036.56-.01.806.075.247.086.472.222.676.408.204.186.386.402.547.648.104.16.203.339.297.539.095.2.176.4.245.6l1.17 3.31-1.039.61-1.085-3.06c-.071-.189-.15-.4-.236-.635a3.241 3.241 0 0 0-.328-.656 2.016 2.016 0 0 0-.313-.373 1.086 1.086 0 0 0-.387-.238c-.14-.048-.3-.06-.479-.035-.18.025-.373.099-.582.221-.238.14-.44.321-.604.543a3.86 3.86 0 0 0-.378.604c.08.093.159.185.234.276.075.092.143.184.204.278.11.167.206.343.291.528.085.186.163.373.235.561l1.17 3.31-1.04.61-1.084-3.06a69.74 69.74 0 0 0-.246-.637 3.655 3.655 0 0 0-.344-.67 2.164 2.164 0 0 0-.303-.37 1.128 1.128 0 0 0-.367-.242.906.906 0 0 0-.43-.056 1.29 1.29 0 0 0-.512.188c-.187.109-.36.226-.521.35a2.96 2.96 0 0 0-.385.346l1.935 5.475-1.04.61-2.203-6.219a8.83 8.83 0 0 1 .941-.89 7.89 7.89 0 0 1 1.007-.719c.313-.183.612-.286.897-.308.284-.021.547.017.787.117a2.98 2.98 0 0 1 .194-.354c.088-.142.197-.29.326-.447.13-.156.28-.314.449-.473.169-.16.358-.3.566-.423Zm8.273 3.32c-.612.358-1.205.464-1.78.316-.576-.149-1.065-.53-1.467-1.146a6.234 6.234 0 0 1-.68-1.434 4.727 4.727 0 0 1-.25-1.626 3.585 3.585 0 0 1 .408-1.576c.26-.503.691-.931 1.295-1.286.61-.358 1.204-.463 1.78-.315.576.148 1.064.53 1.466 1.145.274.42.501.898.68 1.434.18.536.264 1.077.25 1.626a3.583 3.583 0 0 1-.408 1.577c-.26.502-.69.93-1.294 1.285Zm-.382-.963c.336-.197.574-.467.716-.81a2.74 2.74 0 0 0 .199-1.117 4.2 4.2 0 0 0-.215-1.218 4.725 4.725 0 0 0-.529-1.117c-.24-.37-.514-.615-.82-.736-.306-.12-.66-.064-1.062.173a1.653 1.653 0 0 0-.715.81 2.736 2.736 0 0 0-.2 1.116c.009.4.08.806.216 1.218.134.412.31.784.528 1.117.241.37.514.615.82.736.306.121.66.064 1.062-.172Z" fill="#414652"/></svg>
